icons/svg/poi/adit.svg

<?xml version="1.0" encoding="UTF-8" standalone="no"?>
<!-- Created with Inkscape (http://www.inkscape.org/) -->

<svg
   xmlns:dc="http://purl.org/dc/elements/1.1/"
   xmlns:cc="http://creativecommons.org/ns#"
   xmlns:rdf="http://www.w3.org/1999/02/22-rdf-syntax-ns#"
   xmlns:svg="http://www.w3.org/2000/svg"
   xmlns="http://www.w3.org/2000/svg"
   xmlns:sodipodi="http://sodipodi.sourceforge.net/DTD/sodipodi-0.dtd"
   xmlns:inkscape="http://www.inkscape.org/namespaces/inkscape"
   version="1.0"
   width="580"
   height="580"
   id="svg2"
   sodipodi:version="0.32"
   inkscape:version="0.91 r"
   sodipodi:docname="adit.svg"
   inkscape:output_extension="org.inkscape.output.svg.inkscape">
  <metadata
     id="metadata10">
    <rdf:RDF>
      <cc:Work
         rdf:about="">
        <dc:format>image/svg+xml</dc:format>
        <dc:type
           rdf:resource="http://purl.org/dc/dcmitype/StillImage" />
        <cc:license
           rdf:resource="http://web.resource.org/cc/PublicDomain" />
        <dc:language>en</dc:language>
        <dc:title />
      </cc:Work>
    </rdf:RDF>
  </metadata>
  <sodipodi:namedview
     inkscape:window-height="1004"
     inkscape:window-width="1920"
     inkscape:pageshadow="2"
     inkscape:pageopacity="0.0"
     guidetolerance="10.0"
     gridtolerance="10.0"
     objecttolerance="10.0"
     borderopacity="1.0"
     bordercolor="#666666"
     pagecolor="#ffffff"
     id="base"
     showgrid="false"
     inkscape:zoom="0.5"
     inkscape:cx="485.37581"
     inkscape:cy="342.9548"
     inkscape:window-x="1680"
     inkscape:window-y="0"
     inkscape:current-layer="svg2"
     showguides="true"
     inkscape:guide-bbox="true"
     inkscape:window-maximized="1" />
  <defs
     id="defs4">
    <inkscape:perspective
       sodipodi:type="inkscape:persp3d"
       inkscape:vp_x="0 : 290 : 1"
       inkscape:vp_y="0 : 1000 : 0"
       inkscape:vp_z="580 : 290 : 1"
       inkscape:persp3d-origin="290 : 193.33333 : 1"
       id="perspective12" />
    <style
       type="text/css"
       id="style6">
   
    .fil0 {fill:#EF7900}
   
  </style>
    <inkscape:perspective
       id="perspective6807"
       inkscape:persp3d-origin="29.116032 : 19.410688 : 1"
       inkscape:vp_z="58.232063 : 29.116032 : 1"
       inkscape:vp_y="0 : 1000 : 0"
       inkscape:vp_x="0 : 29.116032 : 1"
       sodipodi:type="inkscape:persp3d" />
    <inkscape:perspective
       id="perspective6954"
       inkscape:persp3d-origin="290 : 193.33333 : 1"
       inkscape:vp_z="580 : 290 : 1"
       inkscape:vp_y="0 : 1000 : 0"
       inkscape:vp_x="0 : 290 : 1"
       sodipodi:type="inkscape:persp3d" />
    <inkscape:perspective
       id="perspective2541"
       inkscape:persp3d-origin="240 : 160 : 1"
       inkscape:vp_z="480 : 240 : 1"
       inkscape:vp_y="0 : 1000 : 0"
       inkscape:vp_x="0 : 240 : 1"
       sodipodi:type="inkscape:persp3d" />
    <inkscape:perspective
       id="perspective2750"
       inkscape:persp3d-origin="215 : 143.33333 : 1"
       inkscape:vp_z="430 : 215 : 1"
       inkscape:vp_y="0 : 1000 : 0"
       inkscape:vp_x="0 : 215 : 1"
       sodipodi:type="inkscape:persp3d" />
    <inkscape:perspective
       id="perspective2830"
       inkscape:persp3d-origin="0.5 : 0.33333333 : 1"
       inkscape:vp_z="1 : 0.5 : 1"
       inkscape:vp_y="0 : 1000 : 0"
       inkscape:vp_x="0 : 0.5 : 1"
       sodipodi:type="inkscape:persp3d" />
  </defs>
  <g
     id="g1327">
    <path
       d="M 66.275,1.768 C 24.94,1.768 1.704,23.139 1.704,66.804 L 1.704,516.927 C 1.704,557.771 22.598,579.156 63.896,579.156 L 515.92,579.156 C 557.227,579.156 578.149,558.84 578.149,516.927 L 578.149,66.804 C 578.149,24.203 557.227,1.768 514.627,1.768 C 514.624,1.768 66.133,1.625 66.275,1.768 z"
       style="fill:#111111;stroke:#eeeeee;stroke-width:3.40799999"
       id="path1329" />
  </g>
  <path
     style="fill:#ffffff"
     d="M 250.51562 44.664062 L 253.94922 82.402344 C 264.53488 80.638285 275.50813 79.6875 286.83789 79.6875 L 286.83789 79.941406 C 297.57377 80.134256 307.97947 81.184401 318.0332 82.962891 L 321.15625 44.664062 L 250.51562 44.664062 z M 230.75 48.148438 L 167.5625 75.125 L 183.32812 108.42188 C 198.78597 99.242858 215.83548 91.750174 234.25977 86.71875 L 230.75 48.148438 z M 340.72852 50.710938 L 337.72852 87.503906 C 354.97426 92.398009 370.99244 99.445965 385.60938 108.00195 L 401.09766 75.917969 L 340.72852 50.710938 z M 149.78906 84.326172 L 97.099609 137.81641 L 125.87305 157.71094 C 137.18502 143.99345 150.80754 130.92544 166.46289 119.53711 L 149.78906 84.326172 z M 418.70508 85.447266 L 402.51562 118.98633 C 419.93277 131.492 434.87765 146.08295 446.96289 161.36133 L 476.1582 139.73242 L 418.70508 85.447266 z M 84.875 153.67969 L 51.78125 219.01562 L 88.921875 232.28516 C 91.774788 214.2677 100.37134 193.76085 113.88867 173.74023 L 84.875 153.67969 z M 488.35352 155.58789 L 458.58984 177.63867 C 471.89526 198.31931 479.92188 219.32068 481.76758 237.38672 L 515.21484 215.06836 L 488.35352 155.58789 z M 518.86719 236.67383 L 481.53906 261.58008 L 481.53906 307.04883 L 518.66797 306.88086 L 518.86719 236.67383 z M 50.3125 239.73047 L 49.220703 304.4707 L 87.996094 307.63281 L 87.996094 253.19336 L 50.3125 239.73047 z M 48.882812 324.50977 L 47.710938 394.06055 L 87.996094 393.97656 L 87.996094 327.69922 L 48.882812 324.50977 z M 518.60938 326.88086 L 481.53906 327.04883 L 481.53906 393.08984 L 518.41992 393.08984 L 518.60938 326.88086 z "
     id="path13" />
  <path
     style="fill:#ffffff"
     inkscape:connector-curvature="0"
     d="m 309.032,418.446 c 23.763,0 43.69,17.355 48.724,40.519 l 56.476,-172.548 -302.818,0 49.779,168.091 c 6.477,-20.896 25.342,-36.062 47.557,-36.062 27.548,0 49.96,23.319 49.96,51.979 0,0.344 -0.018,0.685 -0.025,1.028 l 0.411,0 c -0.007,-0.344 -0.025,-0.685 -0.025,-1.028 -0.001,-28.659 22.412,-51.979 49.961,-51.979 z"
     id="path23" />
  <path
     style="fill:#ffffff"
     d="m 309.0332,434.62033 c -18.76156,0 -34.02343,16.06255 -34.02343,35.80534 0,0.30381 0.0136,0.6044 0.0207,0.90733 0.46103,19.32239 15.53002,34.89628 34.00102,34.89628 18.47188,0 33.54176,-15.57389 34.00101,-34.89628 l 0.002,0 c 0.007,-0.30381 0.0224,-0.60352 0.0224,-0.90733 0,-19.74279 -15.26364,-35.80534 -34.02344,-35.80534 z"
     id="path25"
     inkscape:connector-curvature="0" />
  <path
     style="fill:#ffffff"
     d="m 208.74987,435.14664 c -18.48577,0 -33.52331,15.82644 -33.52331,35.27901 0,0.29935 0.0151,0.59552 0.0221,0.894 l -0.002,0 c 0.45424,19.03836 15.30256,34.38332 33.50291,34.38332 18.19948,0 33.0461,-15.34496 33.50122,-34.38332 0.007,-0.29934 0.0204,-0.59552 0.0204,-0.894 -8.7e-4,-19.45344 -15.03757,-35.27901 -33.52161,-35.27901 z"
     id="path29"
     inkscape:connector-curvature="0" />
</svg>

<svg width="580" height="580" viewBox="0 0 580 580" fill="none" xmlns="http://www.w3.org/2000/svg">
<g clip-path="url(#clip0)">
<path d="M66.275 1.76815C24.94 1.76815 1.70398 23.1391 1.70398 66.8041V516.927C1.70398 557.771 22.598 579.156 63.896 579.156H515.92C557.227 579.156 578.149 558.84 578.149 516.927V66.8041C578.149 24.2031 557.227 1.76815 514.627 1.76815C514.624 1.76815 66.133 1.62515 66.275 1.76815Z" fill="#111111" stroke="#EEEEEE" stroke-width="3.408"/>
<path d="M250.516 44.6641L253.949 82.4023C264.535 80.6383 275.508 79.6875 286.838 79.6875V79.9414C297.574 80.1343 307.979 81.1844 318.033 82.9629L321.156 44.6641H250.516ZM230.75 48.1484L167.562 75.125L183.328 108.422C198.786 99.2429 215.835 91.7502 234.26 86.7188L230.75 48.1484ZM340.729 50.7109L337.729 87.5039C354.974 92.398 370.992 99.446 385.609 108.002L401.098 75.918L340.729 50.7109ZM149.789 84.3262L97.0996 137.816L125.873 157.711C137.185 143.993 150.808 130.925 166.463 119.537L149.789 84.3262ZM418.705 85.4473L402.516 118.986C419.933 131.492 434.878 146.083 446.963 161.361L476.158 139.732L418.705 85.4473ZM84.875 153.68L51.7812 219.016L88.9219 232.285C91.7748 214.268 100.371 193.761 113.889 173.74L84.875 153.68ZM488.354 155.588L458.59 177.639C471.895 198.319 479.922 219.321 481.768 237.387L515.215 215.068L488.354 155.588ZM518.867 236.674L481.539 261.58V307.049L518.668 306.881L518.867 236.674ZM50.3125 239.73L49.2207 304.471L87.9961 307.633V253.193L50.3125 239.73ZM48.8828 324.51L47.7109 394.061L87.9961 393.977V327.699L48.8828 324.51ZM518.609 326.881L481.539 327.049V393.09H518.42L518.609 326.881Z" fill="white"/>
<path d="M309.032 418.446C332.795 418.446 352.722 435.801 357.756 458.965L414.232 286.417H111.414L161.193 454.508C167.67 433.612 186.535 418.446 208.75 418.446C236.298 418.446 258.71 441.765 258.71 470.425C258.71 470.769 258.692 471.11 258.685 471.453H259.096C259.089 471.109 259.071 470.768 259.071 470.425C259.07 441.766 281.483 418.446 309.032 418.446V418.446Z" fill="white"/>
<path d="M309.033 434.62C290.272 434.62 275.01 450.683 275.01 470.425C275.01 470.729 275.023 471.03 275.03 471.333C275.491 490.655 290.56 506.229 309.031 506.229C327.503 506.229 342.573 490.655 343.033 471.333H343.034C343.041 471.029 343.057 470.729 343.057 470.425C343.057 450.683 327.793 434.62 309.033 434.62H309.033Z" fill="white"/>
<path d="M208.75 435.146C190.264 435.146 175.227 450.973 175.227 470.426C175.227 470.725 175.242 471.021 175.249 471.319H175.247C175.701 490.358 190.549 505.703 208.75 505.703C226.949 505.703 241.796 490.358 242.251 471.319C242.258 471.02 242.271 470.724 242.271 470.426C242.27 450.972 227.234 435.146 208.75 435.146H208.75Z" fill="white"/>
</g>
<defs>
<clipPath id="clip0">
<path d="M0 0H580V580H0V0Z" fill="white"/>
</clipPath>
</defs>
</svg>
